!!!!SEGMENT: Vin1001e-Missa_Stabat_mater-Agnus.krn
!!!id: Vin1001e
!!!AGN: Mass; Agnus
!!!SCT: Jas (2018)
!!!voices: 6
!!!COM: Jheronimus Vinders
!!!OPR: Missa Stabat mater
!!!OTL: Agnus
**kern	**kern	**kern	**kern	**kern	**kern
*part6	*part5	*part4	*part3	*part2	*part1
*staff6	*staff5	*staff4	*staff3	*staff2	*staff1
*I"Bassus	*I"Tenor II	*I"Tenor I	*I"Altus	*I"Superius II	*I"Superius I
*I'B	*I'T. II	*I'T. I	*I'A	*I'S. II	*I'S. I
*clefF4	*clefGv2	*clefGv2	*clefGv2	*clefG2	*clefG2
*k[b-]	*k[b-]	*k[b-]	*k[b-]	*k[b-]	*k[b-]
*F:	*F:	*F:	*F:	*F:	*F:
*M2/1	*M2/1	*M2/1	*M2/1	*M2/1	*M2/1
*met(C|)	*met(C|)	*met(C|)	*met(C|)	*met(C|)	*met(C|)
!!section: Agnus Dei I
!!!OMD: Agnus Dei I
=1	=1	=1	=1	=1	=1
0r	1r	0r	1c	0r	0r
.	1c	.	1c	.	.
=2	=2	=2	=2	=2	=2
1c	1c	[0c	1A	0r	1r
1c	1A	.	1F	.	1cc
=3	=3	=3	=3	=3	=3
1A	1.F	0c]	1c	0r	1cc
1F	.	.	[1f	.	1a
.	[2f	.	.	.	.
=4	=4	=4	=4	=4	=4
2.B-y	4f]	0d	1f]	0r	1f
.	4e	.	.	.	.
.	4d	.	.	.	.
4A	4c	.	.	.	.
1G	1B-y	.	1g	.	1b-y
=5	=5	=5	=5	=5	=5
[0F	1c	[0f	0c	1cc	2.a
.	.	.	.	.	4f
.	2r	.	.	1cc	1f
.	2c	.	.	.	.
=6	=6	=6	=6	=6	=6
0F]	2d	0f]	1r	1a	0r
.	2c	.	.	.	.
.	2A	.	[1c	1f	.
.	[2c	.	.	.	.
=7	=7	=7	=7	=7	=7
0C	2c]	0e	1c]	0g	0r
.	4B-y	.	.	.	.
.	4A	.	.	.	.
.	1G	.	1c	.	.
=8	=8	=8	=8	=8	=8
[0F	2F	[0f	0A	1a	1f
.	2.f	.	.	.	.
.	.	.	.	1f	2.a
.	4e	.	.	.	.
.	2d	.	.	.	.
.	.	.	.	.	4b-y
=9	=9	=9	=9	=9	=9
0F]	2c	0f_	1A	2.a	2cc
.	2d	.	.	.	2f
.	.	.	.	4b-y	.
.	1A	.	2F	2cc	2.a
.	.	.	[2f	2f	.
.	.	.	.	.	4b-y
=10	=10	=10	=10	=10	=10
1r	1r	0f_	4f]	2.a	2cc
.	.	.	4e	.	.
.	.	.	2d	.	2dd
.	.	.	.	4b-y	.
[1F	[1f	.	2c	2cc	2.a
.	.	.	2B-y	[2dd	.
.	.	.	.	.	4b-y
=11	=11	=11	=11	=11	=11
2F]	0f]	0f]	2A	2dd]	1cc
2E	.	.	2G	1cc	.
1D	.	.	1F	.	1dd
.	.	.	.	2bni	.
=12	=12	=12	=12	=12	=12
1C	2e	[0g	2r	1cc	2ee
.	2c	.	1c	.	2.gg
1G	1d	.	.	1r	.
.	.	.	.	.	4ff
.	.	.	2B-y	.	2dd
=13	=13	=13	=13	=13	=13
0C	0c	0g]	4c	0r	1ee
.	.	.	4d	.	.
.	.	.	4e	.	.
.	.	.	4f	.	.
.	.	.	1g	.	2r
.	.	.	.	.	2ee
=14	=14	=14	=14	=14	=14
0F	0A	0f	1a	2.cc	2ff
.	.	.	.	.	4f
.	.	.	.	4b-y	4g
.	.	.	2f	4a	4a
.	.	.	.	4g	4b-y
.	.	.	[2a	2f	4cc
.	.	.	.	.	4dd
=15	=15	=15	=15	=15	=15
0r	1r	0c	2a]	1cc	4ee
.	.	.	.	.	4cc
.	.	.	4g	.	1ff
.	.	.	4f	.	.
.	1c	.	1g	2.cc	.
.	.	.	.	.	2ee
.	.	.	.	4b-y	.
=16	=16	=16	=16	=16	=16
[0F	2.c	[0f	0f	2a	0ff
.	.	.	.	2g	.
.	4B-y	.	.	.	.
.	2A	.	.	2f	.
.	2G	.	.	2e	.
=17	=17	=17	=17	=17	=17
0F]	2F	0f]	0r	2d	0r
.	2E	.	.	1c	.
.	1D	.	.	.	.
.	.	.	.	2Bni	.
=18	=18	=18	=18	=18	=18
1G	2.C	[0e	1r	1c	0r
.	4D	.	.	.	.
1C	2.E	.	1g	2.c	.
.	4F	.	.	4d	.
=19	=19	=19	=19	=19	=19
2.C	2G	0e]	0g	2.e	0r
.	2A	.	.	.	.
4D	.	.	.	4f	.
2.E	2G	.	.	2.g	.
.	2c	.	.	.	.
4F	.	.	.	4a	.
=20	=20	=20	=20	=20	=20
2G	2B-y	0d	2g	2b-y	0r
2F	2A	.	2a	1cc	.
1G	1B-y	.	1g	.	.
.	.	.	.	2bni	.
=21	=21	=21	=21	=21	=21
[0C	1G	0c	0e	1cc	2r
.	.	.	.	.	1cc
.	2r	.	.	1r	.
.	2G	.	.	.	4b-y
.	.	.	.	.	4a
=22	=22	=22	=22	=22	=22
1C]	2c	0e	0r	0r	2g
.	2c	.	.	.	2g
1r	2A	.	.	.	1cc
.	2A	.	.	.	.
=23	=23	=23	=23	=23	=23
1r	1d	0f	1r	1r	2a
.	.	.	.	.	2a
2r	1D	.	1d 1f	2r	1dd
2D	.	.	.	2a	.
=24	=24	=24	=24	=24	=24
1G	1r	[0d	1B-y 1g	1b-y	1r
1D	2r	.	1f	2a	2r
.	2D	.	.	2f	2a
=25	=25	=25	=25	=25	=25
1r	1G	0d]	1r	1g	1b-y
2r	1D	.	2r	1f	2a
2F	.	.	2f	.	2a
=26	=26	=26	=26	=26	=26
1.A	0r	[0c	2e	0r	1.cc
.	.	.	2.a	.	.
.	.	.	4g	.	.
2B-y	.	.	[2f	.	4b-y
.	.	.	.	.	4a
=27	=27	=27	=27	=27	=27
1c	1r	0c_	2f]	1r	1g
.	.	.	2e	.	.
1F	1F	.	1f	1cc	[1a
=28	=28	=28	=28	=28	=28
0r	1.A	0c_	2e	2cc	1a]
.	.	.	2.a	1cc	.
.	.	.	.	.	1r
.	.	.	4g	.	.
.	2B-y	.	[2f	4b-y	.
.	.	.	.	4a	.
=29	=29	=29	=29	=29	=29
0r	1c	0c]	2f]	1g	1r
.	.	.	2e	.	.
.	1F	.	1f	[1a	1f
=30	=30	=30	=30	=30	=30
2r	0r	[0F	1r	0a]	1.a
2F	.	.	.	.	.
[1A	.	.	1F	.	.
.	.	.	.	.	2b-y
=31	=31	=31	=31	=31	=31
2A]	0r	0F]	1.A	0r	1cc
2B-y	.	.	.	.	.
1c	.	.	.	.	1f
.	.	.	2B-y	.	.
=32	=32	=32	=32	=32	=32
[0F	0r	[0A	1c	1f	0r
.	.	.	1F	[1a	.
=33	=33	=33	=33	=33	=33
0F]	1c	0A]	0f	2a]	0r
.	.	.	.	2b-y	.
.	1c	.	.	1cc	.
=34	=34	=34	=34	=34	=34
0r	0d	[0B-y	0r	1f	1.ff
.	.	.	.	[1b-y	.
.	.	.	.	.	2ee
=35	=35	=35	=35	=35	=35
1r	2.G	0B-_	0r	2b-]	2dd
.	.	.	.	2a	2cc
.	4A	.	.	.	.
[1B-y	4B-y	.	.	2g	2b-y
.	4c	.	.	.	.
.	2d	.	.	2f	2a
=36	=36	=36	=36	=36	=36
2B-]	1G	0B-_	0r	1.b-y	1g
2A	.	.	.	.	.
2G	1d	.	.	.	2r
2F	.	.	.	2a	2f
=37	=37	=37	=37	=37	=37
2E-X	0r	0B-]	0r	2g	2g
2F	.	.	.	1f	2a
1G	.	.	.	.	1b-y
.	.	.	.	2e	.
=38	=38	=38	=38	=38	=38
1F	1A	[0c	1F	1f	4a
.	.	.	.	.	4b-y
.	.	.	.	.	4cc
.	.	.	.	.	4dd
2C	2G	.	2.c	[1g	4ee
.	.	.	.	.	4ff
[2E	2C	.	.	.	[2gg
.	.	.	4d	.	.
=39	=39	=39	=39	=39	=39
2E]	2G	0c]	2e	2g]	2gg]
2F	2A	.	2c	2.cc	1ff
1C	1G	.	[1c	.	.
.	.	.	.	4b-y	.
.	.	.	.	2g	2ee
=40	=40	=40	=40	=40	=40
1.F	1F	[0A	1c]	[0a	1ff
.	1c	.	2r	.	[1ff
2E	.	.	2c	.	.
=41	=41	=41	=41	=41	=41
2D	2r	0A_	2d	1a]	2ff]
2C	2c	.	2e	.	2ee
1D	1F	.	1f	2r	1dd
.	.	.	.	[2a	.
=42	=42	=42	=42	=42	=42
[0AA	0c	0A_	0e	4a]	2cc
.	.	.	.	4b-y	.
.	.	.	.	2.cc	4a
.	.	.	.	.	4b-y
.	.	.	.	.	4cc
.	.	.	.	4b-y	4dd
.	.	.	.	4a	[2ee
.	.	.	.	4g	.
=43	=43	=43	=43	=43	=43
0AA]	0r	0A]	0r	2a	2ee]
.	.	.	.	2f	1dd
.	.	.	.	1e	.
.	.	.	.	.	2cc#i
=44	=44	=44	=44	=44	=44
0r	1.G	0B-y	1.g	0d	1dd
.	.	.	.	.	1r
.	2G	.	2d	.	.
=45	=45	=45	=45	=45	=45
0r	2F	0A	2f	0r	2.dd
.	2D	.	2f	.	.
.	.	.	.	.	4dd
.	1A	.	1e	.	2cc
.	.	.	.	.	2cc
=46	=46	=46	=46	=46	=46
2r	1D	[0F	1d	2.dd	1dd
2D	.	.	.	.	.
.	.	.	.	4dd	.
1F	1r	.	1r	2cc	4a
.	.	.	.	.	4b-y
.	.	.	.	2cc	4cc
.	.	.	.	.	4a
=47	=47	=47	=47	=47	=47
2BB-y	2.d	0F]	0r	1dd	1b-y
2BB-y	.	.	.	.	.
.	4d	.	.	.	.
1F	2c	.	.	2a	2.cc
.	2A	.	.	[2cc	.
.	.	.	.	.	4dd
=48	=48	=48	=48	=48	=48
0C	[0c	0G	0r	2cc]	2ee
.	.	.	.	4b-y	1ff
.	.	.	.	4a	.
.	.	.	.	1g	.
.	.	.	.	.	2ee
=49	=49	=49	=49	=49	=49
1r	1.c]	0F	0r	0a	0ff
[1c	.	.	.	.	.
.	2B-y	.	.	.	.
=50	=50	=50	=50	=50	=50
2c]	2A	[0c	1.c	1r	0r
2B-y	2G	.	.	.	.
2A	1F	.	.	[1cc	.
2G	.	.	2B-y	.	.
=51	=51	=51	=51	=51	=51
1.F	0r	0c]	2A	2cc]	0r
.	.	.	2G	2b-y	.
.	.	.	2F	2a	.
2C	.	.	[2G	[2g	.
=52	=52	=52	=52	=52	=52
2E-X	0r	0B-y	2G]	2g]	0r
2F	.	.	2A	1f	.
1G	.	.	1B-y	.	.
.	.	.	.	2e	.
=53	=53	=53	=53	=53	=53
0F	0r	0A	0c	0f	0cc
=54	=54	=54	=54	=54	=54
1C	1.G	[0G	0r	0r	1cc
[1E-i	.	.	.	.	2.b-y
.	2A	.	.	.	.
.	.	.	.	.	4a
=55	=55	=55	=55	=55	=55
2E-]	1B-y	0G]	0r	0g	2g
2D	.	.	.	.	1f
1C	1c	.	.	.	.
.	.	.	.	.	2e
=56	=56	=56	=56	=56	=56
1F	1.A	[0F	1c	2.a	1f
.	.	.	.	4b-y	.
2r	.	.	1f	2cc	2r
2BB-y	2B-y	.	.	2dd	2b-y
=57	=57	=57	=57	=57	=57
2F	1c	0F_	2r	2cc	2a
2F	.	.	2c	2a	2f
2r	1r	.	1f	2r	2r
2BB-y	.	.	.	2b-y	2dd
=58	=58	=58	=58	=58	=58
2F	1r	0F]	1f	2a	2cc
2F	.	.	.	2f	1a
2r	2r	.	2r	1f	.
2BB-y	2B-y	.	2d	.	2b-y
=59	=59	=59	=59	=59	=59
2F	2A	[0f	2c	1r	1cc
2F	2F	.	2A	.	.
2r	2r	.	2r	2r	1ff
2BB-y	2d	.	2B-y	2f	.
=60	=60	=60	=60	=60	=60
1F	2c	1f]	2A	1a	2r
.	2A	.	2F	.	4cc
.	.	.	.	.	4dd
1C	1c	1e	1G	1g	4ee
.	.	.	.	.	4ff
.	.	.	.	.	4gg
.	.	.	.	.	4ee
=61	=61	=61	=61	=61	=61
0F	1F	0c	0A	0f	2ff
.	.	.	.	.	4ee
.	.	.	.	.	4dd
.	1r	.	.	.	2cc
.	.	.	.	.	2a
=62	=62	=62	=62	=62	=62
0r	0r	1.d	2.G	1r	2.b-y
.	.	.	4A	.	4cc
.	.	.	2B-y	2r	2dd
.	.	2c	[2c	[2g	[2ee-i
=63	=63	=63	=63	=63	=63
0r	0r	1A	4c]	4g]	4ee-]
.	.	.	4B-y	4e	4dd
.	.	.	2c	2f	2.cc
.	.	1G	1d	[1g	.
.	.	.	.	.	4b-y
.	.	.	.	.	2b-y
=64	=64	=64	=64	=64	=64
2r	1r	1c	1c	2g]	0cc
2F	.	.	.	2a	.
2E	2r	1e	[1g	2g	.
2C	2c	.	.	[2cc	.
=65	=65	=65	=65	=65	=65
1G	1d	1d	1g]	2cc]	1r
.	.	.	.	2bni	.
2C	1e	[1c	1r	1cc	2.cc
[2A	.	.	.	.	.
.	.	.	.	.	4b-y
=66	=66	=66	=66	=66	=66
2A]	2c	1c]	0r	0r	4a
.	.	.	.	.	4g
2F	2f	.	.	.	1a
1G	2d	1B-y	.	.	.
.	2e	.	.	.	2g
=67	=67	=67	=67	=67	=67
0F	1f	0A	0f	1cc	1a
.	[1c	.	.	1cc	2f
.	.	.	.	.	[2ff
=68	=68	=68	=68	=68	=68
1C	1c]	1G	1g	1r	2ff]
.	.	.	.	.	2ee
2r	[1A	[1c	1f	1cc	[1ff
[2F	.	.	.	.	.
=69	=69	=69	=69	=69	=69
2F]	2A]	1c]	0f	1cc	2ff]
2E	2G	.	.	.	2gg
1D	2A	1d	.	1r	1ff
.	2F	.	.	.	.
=70	=70	=70	=70	=70	=70
1C	1c	1e	1g	0cc	2ee
.	.	.	.	.	2gg
1F	1A	1f	1c	.	[1ff
=71	=71	=71	=71	=71	=71
[0Cl	[0Gl	[0gl	[0c [0el	[0ccl	2ff]
.	.	.	.	.	4ee
.	.	.	.	.	4dd
.	.	.	.	.	1ee
=	=	=	=	=	=
00C]	00G]	00g]	00c]	00cc]	00ee
=||	=||	=||	=||	=||	=||
*M2/1	*M2/1	*M2/1	*M2/1	*M2/1	*M2/1
*met(C|)	*met(C|)	*met(C|)	*met(C|)	*met(C|)	*met(C|)
!!section: Agnus Dei II
!!!OMD: Agnus Dei II
1A	0r	0r	1c	[0a	0r
2F	.	.	2d	.	.
2D	.	.	[2f	.	.
=72	=72	=72	=72	=72	=72
0A	1r	0r	2f]	0a]	1r
.	.	.	4e	.	.
.	.	.	4d	.	.
.	1A	.	1e	.	1cc
=73	=73	=73	=73	=73	=73
1D	2F	0r	0d	[0a	2dd
.	2D	.	.	.	1ff
1r	[1A	.	.	.	.
.	.	.	.	.	4ee
.	.	.	.	.	4dd
=74	=74	=74	=74	=74	=74
1r	1A]	1c	2r	0a]	1ee
.	.	.	2e	.	.
2r	1D	2d	2f	.	[1dd
2D	.	[2f	2d	.	.
=75	=75	=75	=75	=75	=75
1D	0r	2f]	[0a	1r	1dd]
.	.	4e	.	.	.
.	.	4d	.	.	.
1A	.	1e	.	1cc	2r
.	.	.	.	.	2ee
=76	=76	=76	=76	=76	=76
1D	2r	1d	0a_	2dd	2ff
.	2D	.	.	1ff	1dd
1r	1D	1A	.	.	.
.	.	.	.	4ee	4cc
.	.	.	.	4dd	4b-y
=77	=77	=77	=77	=77	=77
1r	1A	1r	0a]	1ee	1cc
2r	1D	1f	.	2dd	1dd
2D	.	.	.	4cc	.
.	.	.	.	4b-y	.
=78	=78	=78	=78	=78	=78
2F	0r	1f	1f	1a	2cc
2D	.	.	.	.	2.dd
[1G	.	1d	2.g	1b-y	.
.	.	.	.	.	4cc
.	.	.	.	.	4b-y
.	.	.	4f	.	4a
=79	=79	=79	=79	=79	=79
1G]	2r	[0d	2d	1g	1b-y
.	2G	.	2e	.	.
2D	2F	.	1f	1a	1a
2A	2D	.	.	.	.
=80	=80	=80	=80	=80	=80
1B-y	1G	0d]	2.d	2g	0r
.	.	.	.	2g	.
.	.	.	4e	.	.
2.A	2.D	.	[1f	1a	.
4G	4E	.	.	.	.
=81	=81	=81	=81	=81	=81
2A	2F	2r	2f]	2a	0r
2B-y	2G	2G	2d	2.g	.
1G	2C	2c	2e	.	.
.	.	.	.	4a	.
.	2G	2B-y	2d	2b-y	.
=82	=82	=82	=82	=82	=82
2r	4C	1c	1e	2.g	1r
.	4D	.	.	.	.
2.G	4E	.	.	.	.
.	4F	.	.	4a	.
.	1G	2B-y	1d	1b-y	2r
4A	.	.	.	.	.
4B-y	.	[2G	.	.	[2dd
4c	.	.	.	.	.
=83	=83	=83	=83	=83	=83
0d	2G	4G]	1g	2b-y	2dd]
.	.	4A	.	.	.
.	2G	4B-y	.	2b-y	2dd
.	.	4c	.	.	.
.	1D	1d	2f	[1a	1dd
.	.	.	[2d	.	.
=84	=84	=84	=84	=84	=84
2r	1D	1d	4d]	2a]	1a
.	.	.	4e	.	.
2.D	.	.	1f	2f	.
.	1F	1A	.	[1a	2r
4E	.	.	.	.	.
4F	.	.	4e	.	2a
4G	.	.	4d	.	.
=85	=85	=85	=85	=85	=85
2.A	1F	1F	2c	1a]	0cc
.	.	.	2d	.	.
4B-y	.	.	.	.	.
[1c	1C	1G	[1e	1g	.
=86	=86	=86	=86	=86	=86
1c]	2r	1c	1e]	2r	1g
.	2C	.	.	1c	.
1r	1F	1A	[1f	.	2r
.	.	.	.	[2f	2cc
=87	=87	=87	=87	=87	=87
2r	1D	1d	1f]	2f]	1ff
2F	.	.	.	1d	.
1B-y	1G	1G	[1g	.	1dd
.	.	.	.	[2g	.
=88	=88	=88	=88	=88	=88
2G	1C	2r	2g]	2g]	1gg
2.c	.	2G	1.e	2g	.
.	1C	1c	.	1g	1cc
4B-y	.	.	.	.	.
4A	.	.	.	.	.
4G	.	.	.	.	.
=89	=89	=89	=89	=89	=89
1F	1F	1A	0f	0a	2r
.	.	.	.	.	2cc
2r	1D	[1d	.	.	1ff
2F	.	.	.	.	.
=90	=90	=90	=90	=90	=90
1B-y	1.G	2d]	1g	0b-y	1dd
.	.	2c	.	.	.
1G	.	2B-y	1r	.	[1gg
.	2F	2A	.	.	.
=91	=91	=91	=91	=91	=91
1G	2E	0G	1.g	1r	2gg]
.	2D	.	.	.	2ff
[1c	1C	.	.	1g	2ee
.	.	.	2f	.	2dd
=92	=92	=92	=92	=92	=92
2c]	1C	1r	2e	1.cc	1cc
2B-y	.	.	2d	.	.
2A	[1F	[1A	[1c	.	1cc
2G	.	.	.	2b-y	.
=93	=93	=93	=93	=93	=93
0F	2F]	1A]	1c]	2a	1.ff
.	2E	.	.	2g	.
.	2D	1A	1f	1f	.
.	2C	.	.	.	2ee
=94	=94	=94	=94	=94	=94
2r	4BB-y	1B-y	2r	1b-y	1dd
.	4C	.	.	.	.
1F	4D	.	2f	.	.
.	4E	.	.	.	.
.	1F	1F	2.f	1a	2cc
2c	.	.	.	.	2a
.	.	.	4e	.	.
=95	=95	=95	=95	=95	=95
2B-y	2G	2r	2d	2g	2b-y
2A	2.A	2.F	2c	2c	2.cc
2F	.	.	2.c	1cc	.
.	4G	4G	.	.	4b-y
[2c	2F	4A	.	.	2a
.	.	4B-y	4d	.	.
=96	=96	=96	=96	=96	=96
4c]	2E	0c	2e	2cc	2g
4B-y	.	.	.	.	.
2A	2F	.	2c	2.cc	1f
1G	1C	.	1g	.	.
.	.	.	.	4b-y	.
.	.	.	.	2g	2e
=97	=97	=97	=97	=97	=97
0F	0F	0A	1c	0a	0f
.	.	.	2r	.	.
.	.	.	2c	.	.
=98	=98	=98	=98	=98	=98
0r	2r	0r	2f	0r	1r
.	2F	.	2f	.	.
.	2B-y	.	2d	.	1f
.	2B-y	.	2d	.	.
=99	=99	=99	=99	=99	=99
0r	2G	0r	2.g	0r	2b-y
.	2G	.	.	.	2b-y
.	.	.	4f	.	.
.	2.c	.	2.e	.	2g
.	.	.	.	.	2g
.	4B-y	.	4d	.	.
=100	=100	=100	=100	=100	=100
1r	2.A	2r	0c	0r	2.cc
.	.	2c	.	.	.
.	4G	.	.	.	4b-y
2r	1F	2f	.	.	2.a
2F	.	2f	.	.	.
.	.	.	.	.	4g
=101	=101	=101	=101	=101	=101
2B-y	0r	2d	0r	1f	1f
2B-y	.	2d	.	.	.
2G	.	2.g	.	2b-y	1r
2G	.	.	.	2b-y	.
.	.	4f	.	.	.
=102	=102	=102	=102	=102	=102
2.c	0r	2.e	0r	2g	0r
.	.	.	.	2g	.
4B-y	.	4d	.	.	.
2.A	.	[1c	.	2.cc	.
4G	.	.	.	4b-y	.
=103	=103	=103	=103	=103	=103
0F	1r	1c]	1r	2.a	1r
.	.	.	.	4g	.
.	2r	1r	2r	[1f	2r
.	2BB-y	.	2B-y	.	2dd
=104	=104	=104	=104	=104	=104
0r	2F	0r	2A	0f]	2cc
.	2.BB-y	.	1B-y	.	1dd
.	4C	.	.	.	.
.	4D	.	4A	.	4cc
.	4E	.	4G	.	4b-y
=105	=105	=105	=105	=105	=105
1r	2F	1r	2c	0r	2a
.	2BB-y	.	1d	.	1b-y
2r	1r	2r	.	.	.
2BB-y	.	2d	4c	.	4a
.	.	.	4B-y	.	4g
=106	=106	=106	=106	=106	=106
2F	0r	2c	2A	2r	[0f
2BB-y	.	2B-y	2d	2dd	.
2F	.	2A	1r	2cc	.
[2BB-y	.	2B-y	.	[2dd	.
=107	=107	=107	=107	=107	=107
4BB-]	0r	2B-y	0r	2dd]	0f]
4C	.	.	.	.	.
4D	.	4A	.	4cc	.
4E	.	4G	.	4b-y	.
2F	.	2c	.	2a	.
2BB-y	.	[2d	.	[2b-y	.
=108	=108	=108	=108	=108	=108
1BB-y	2r	2d]	1r	2b-]	0r
.	4BB-y	4c	.	4a	.
.	4C	4B-y	.	4g	.
1r	4D	1A	2r	[1f	.
.	4E	.	.	.	.
.	[2F	.	2F	.	.
=109	=109	=109	=109	=109	=109
0r	2F]	0A	2c	0f]	2r
.	2D	.	2d	.	2f
.	1F	.	2c	.	2cc
.	.	.	[2f	.	2dd
=110	=110	=110	=110	=110	=110
0r	1F	0r	4f]	0r	2cc
.	.	.	4g	.	.
.	.	.	4a	.	2ff
.	.	.	4f	.	.
.	2C	.	2.g	.	4ee
.	.	.	.	.	4cc
.	2G	.	.	.	2dd
.	.	.	4f	.	.
=111	=111	=111	=111	=111	=111
0r	0C	0r	2e	0r	2cc
.	.	.	4c	.	1ee
.	.	.	4d	.	.
.	.	.	4e	.	.
.	.	.	4f	.	.
.	.	.	[2g	.	4dd
.	.	.	.	.	4cc
=112	=112	=112	=112	=112	=112
0r	0G	1r	2g]	0g	2bni
.	.	.	2e	.	1cc
.	.	2r	1d	.	.
.	.	2G	.	.	2bni
=113	=113	=113	=113	=113	=113
2.C	1r	2G	0c	2.e	[0cc
.	.	2A	.	.	.
4D	.	.	.	4f	.
2E	2.C	2G	.	2g	.
2F	.	2c	.	2a	.
.	4D	.	.	.	.
=114	=114	=114	=114	=114	=114
2G	2E	2r	0r	2g	0cc_
2A	2F	2.c	.	1f	.
1G	1C	.	.	.	.
.	.	4B-y	.	.	.
.	.	2G	.	2e	.
=115	=115	=115	=115	=115	=115
1F	1r	1A	2.c	1f	0cc_
.	.	.	4d	.	.
1r	2.C	1G	2e	1g	.
.	.	.	2f	.	.
.	4D	.	.	.	.
=116	=116	=116	=116	=116	=116
2.C	2E	0r	2g	2r	0cc]
.	2F	.	2a	2.cc	.
4D	.	.	.	.	.
2E	2.C	.	2g	.	.
.	.	.	.	4b-y	.
2F	.	.	2c	2a	.
.	4D	.	.	.	.
=117	=117	=117	=117	=117	=117
2G	2E	0r	2r	2g	0cc
2A	2F	.	2.c	1f	.
1G	1C	.	.	.	.
.	.	.	4B-y	.	.
.	.	.	2G	2e	.
=118	=118	=118	=118	=118	=118
1F	0F	1r	2.A	0f	1r
.	.	.	4B-y	.	.
2r	.	2r	1c	.	2r
2F	.	2f	.	.	2a
=119	=119	=119	=119	=119	=119
2c	0r	2e	[0c	0r	2g
2F	.	2f	.	.	2a
2c	.	2e	.	.	2g
2F	.	2f	.	.	2a
=120	=120	=120	=120	=120	=120
2c	0r	2e	0c]	0r	2g
2.F	.	2f	.	.	1cc
.	.	2F	.	.	.
4G	.	.	.	.	.
4A	.	[2f	.	.	4b-y
4B-y	.	.	.	.	4a
=121	=121	=121	=121	=121	=121
1c	1r	2f]	1r	1r	1g
.	.	2e	.	.	.
1F	2r	1f	2r	2r	1a
.	2F	.	2f	2a	.
=122	=122	=122	=122	=122	=122
0r	2c	0r	2e	2g	0r
.	2F	.	2f	2a	.
.	2c	.	2e	2g	.
.	2F	.	2f	2a	.
=123	=123	=123	=123	=123	=123
0r	2c	0r	2e	2g	0r
.	2.F	.	1a	1cc	.
.	4G	.	.	.	.
.	4A	.	4g	4b-y	.
.	4B-y	.	4f	4a	.
=124	=124	=124	=124	=124	=124
1r	1c	1r	1e	1g	1r
2r	1F	2r	2r	1a	2r
[2F	.	[2c	[2f	.	[2a
=125	=125	=125	=125	=125	=125
2F]	0r	2c]	2f]	0r	2a]
2F	.	2c	2f	.	2a
2D	.	2d	2f	.	2a
2D	.	2d	2f	.	2a
=126	=126	=126	=126	=126	=126
1F	0r	2.A	1f	0r	1a
.	.	4B-y	.	.	.
1C	.	1c	1e	.	1g
=127	=127	=127	=127	=127	=127
0r	2r	2r	0r	2r	0r
.	1F	1f	.	1a	.
.	2F	2f	.	2a	.
=128	=128	=128	=128	=128	=128
0r	2D	2f	0r	2a	0r
.	2D	2f	.	2a	.
.	1F	1f	.	1a	.
=	=	=	=	=	=
*M3/1	*M3/1	*M3/1	*M3/1	*M3/1	*M3/1
*met(C|3)	*met(C|3)	*met(C|3)	*met(C|3)	*met(C|3)	*met(C|3)
1c	0.C	0e	1g	0g	1ee
1c	.	.	1g	.	1ee
1c	.	1r	1g	1r	1ee
=129	=129	=129	=129	=129	=129
2F	1%3r	1%3r	0a	1%3r	1ff
2G	.	.	.	.	.
2A	.	.	.	.	1.ee
2B-y	.	.	.	.	.
1c	.	.	[1g	.	.
.	.	.	.	.	2dd
=130	=130	=130	=130	=130	=130
1G	1%3r	1%3r	1g]	1%3r	0dd
0A	.	.	0e	.	.
.	.	.	.	.	1cc#i
=131	=131	=131	=131	=131	=131
0.D	1F	1A	0d	1a	0dd
.	1F	1A	.	1a	.
.	1F	1A	1r	1a	1r
=132	=132	=132	=132	=132	=132
1%3r	2BB-y	0d	1%3r	1b-y	1%3r
.	2C	.	.	.	.
.	2D	.	.	1.a	.
.	2E	.	.	.	.
.	1F	[1c	.	.	.
.	.	.	.	2g	.
=133	=133	=133	=133	=133	=133
1%3r	1C	1c]	1%3r	0g	1%3r
.	0D	0A	.	.	.
.	.	.	.	1f#i	.
=134	=134	=134	=134	=134	=134
1B-y	0G	0G	1d	0.g	1dd
1B-y	.	.	1d	.	1dd
1B-y	1r	1r	1d	.	1dd
=135	=135	=135	=135	=135	=135
0A	1%3r	1%3r	1.e	1%3r	1.cc
.	.	.	2c	.	2a
1G	.	.	2d	.	1b-y
.	.	.	2e	.	.
=136	=136	=136	=136	=136	=136
0F	1%3r	1%3r	1.f	1%3r	1a
.	.	.	.	.	1cc
.	.	.	2e	.	.
1BB-y	.	.	1d	.	1b-y
=137	=137	=137	=137	=137	=137
1F	1%3r	1%3r	1c	1f	0a
0G	.	.	0B-y	1d	.
.	.	.	.	1e	1g
=	=	=	=	=	=
*M2/1	*M2/1	*M2/1	*M2/1	*M2/1	*M2/1
*met(C|)	*met(C|)	*met(C|)	*met(C|)	*met(C|)	*met(C|)
[0F	1F	2r	0A	0f	1a
.	.	2c	.	.	.
.	2D	2d	.	.	2r
.	2F	2c	.	.	2cc
=138	=138	=138	=138	=138	=138
0F]	2BB-y	1f	1r	2r	2dd
.	2F	.	.	2c	2cc
.	2D	1F	2r	2d	1ff
.	2F	.	2c	2c	.
=139	=139	=139	=139	=139	=139
2r	2BB-y	2r	2d	1f	1r
2F	2F	2c	2c	.	.
2D	2r	2d	1f	1r	2r
2F	2A	2c	.	.	2cc
=140	=140	=140	=140	=140	=140
2BB-y	2B-y	1f	1r	2r	2dd
2F	2A	.	.	2c	2cc
2D	1F	1F	2r	2d	[1ff
2F	.	.	2c	2c	.
=141	=141	=141	=141	=141	=141
2BB-y	2r	2r	2d	1f	1ff]
2F	2F	2c	2c	.	.
2r	2D	2d	1f	2r	1r
2A	2F	2c	.	2c	.
=142	=142	=142	=142	=142	=142
2B-y	2BB-y	0f	1r	2d	2r
2A	2F	.	.	2c	2cc
2F	2D	.	2r	[1f	2dd
2A	2F	.	2c	.	2cc
=143	=143	=143	=143	=143	=143
2B-y	2BB-y	0F	2d	1f]	2.ff
2.A	2.F	.	2c	.	.
.	.	.	.	.	4ee
.	.	.	2f	1a	2cc
4G	4E	.	.	.	.
2F	2F	.	2f	.	2dd
=144	=144	=144	=144	=144	=144
0G;	0C;	0c;	0e;	0g;	0ee;
=145	=145	=145	=145	=145	=145
0F	1.c	1.A	1.c	1r	0ff
.	.	.	.	[1cc	.
.	2B-y	2A	2c	.	.
=146	=146	=146	=146	=146	=146
[0Fl	2A	1A	1c	2cc]	[0ffl
.	2G	.	.	2b-y	.
.	2F	1A	1c	2a	.
.	2E	.	.	2g	.
=147	=147	=147	=147	=147	=147
0F_	2D	1A	0d	2f	0ff_
.	2C	.	.	2e	.
.	1BB-y	1B-y	.	1d	.
=148	=148	=148	=148	=148	=148
00F]	00Fl	00Al	00cl	00al	00ff]
==	==	==	==	==	==
*-	*-	*-	*-	*-	*-
!!!system-decoration: [*]
!!!RDF**kern: i = editorial accidental
!!!RDF**kern: l = terminal long
!!!ENC: Benjamin Ory
!!!END: 2022/2/24
!!!EED: Benjamin Ory
!!!EEV: 2022/02/24
!!!YEC: Copyright 2022 Benjamin Ory, All Rights Reserved
!!!ONB: Translated from MusicXML on 2022/02/24
